packages/swarm-icons/src/icons/line/Wi-fi.svg

<svg xmlns="http://www.w3.org/2000/svg" width="24" height="24" viewBox="0 0 24 24">
  <path fill="#757575" d="M15,13 L15,8 C15,7.72385763 15.2238576,7.5 15.5,7.5 C15.7761424,7.5 16,7.72385763 16,8 L16,13 L22,13 L22,18 C22,19.6568542 20.6568542,21 19,21 L5,21 C3.34314575,21 2,19.6568542 2,18 L2,13 L15,13 Z M3,14 L3,18 C3,19.1045695 3.8954305,20 5,20 L19,20 C20.1045695,20 21,19.1045695 21,18 L21,14 L3,14 Z M19,8 C19,8.27614237 18.7761424,8.5 18.5,8.5 C18.2238576,8.5 18,8.27614237 18,8 C18,6.61928813 16.8807119,5.5 15.5,5.5 C14.1192881,5.5 13,6.61928813 13,8 C13,8.27614237 12.7761424,8.5 12.5,8.5 C12.2238576,8.5 12,8.27614237 12,8 C12,6.06700338 13.5670034,4.5 15.5,4.5 C17.4329966,4.5 19,6.06700338 19,8 Z M22,8 C22,8.27614237 21.7761424,8.5 21.5,8.5 C21.2238576,8.5 21,8.27614237 21,8 C21,4.96243388 18.5375661,2.5 15.5,2.5 C12.4624339,2.5 10,4.96243388 10,8 C10,8.27614237 9.77614237,8.5 9.5,8.5 C9.22385763,8.5 9,8.27614237 9,8 C9,4.41014913 11.9101491,1.5 15.5,1.5 C19.0898509,1.5 22,4.41014913 22,8 Z M6,18 C5.44771525,18 5,17.5522847 5,17 C5,16.4477153 5.44771525,16 6,16 C6.55228475,16 7,16.4477153 7,17 C7,17.5522847 6.55228475,18 6,18 Z M10,18 C9.44771525,18 9,17.5522847 9,17 C9,16.4477153 9.44771525,16 10,16 C10.5522847,16 11,16.4477153 11,17 C11,17.5522847 10.5522847,18 10,18 Z"/>
</svg>

<svg xmlns="http://www.w3.org/2000/svg" width="24" height="24"><path fill="#757575" d="M15 13V8a.5.5 0 111 0v5h6v5a3 3 0 01-3 3H5a3 3 0 01-3-3v-5h13zM3 14v4a2 2 0 002 2h14a2 2 0 002-2v-4H3zm16-6a.5.5 0 11-1 0 2.5 2.5 0 10-5 0 .5.5 0 11-1 0 3.5 3.5 0 017 0zm3 0a.5.5 0 11-1 0 5.5 5.5 0 00-11 0 .5.5 0 01-1 0 6.5 6.5 0 1113 0zM6 18a1 1 0 110-2 1 1 0 010 2zm4 0a1 1 0 110-2 1 1 0 010 2z"/></svg>
